Sources/FrostedUI/Resources/Icons.xcassets/rotateCard16.imageset/rotate-card-16.svg

<svg width="16" height="16" viewBox="0 0 16 16" fill="none" xmlns="http://www.w3.org/2000/svg" data-fui-icon="true">
  <path
    d="M5.5 3.06145C5.50002 1.27239 7.18135 -0.0404274 8.91699 0.393478L13.917 1.64348C15.1412 1.94955 16 3.04959 16 4.31145V11.6884C15.9999 12.9502 15.1411 14.0503 13.917 14.3564L8.91699 15.6064C7.18144 16.0402 5.50016 14.7273 5.5 12.9384V11.9999C5.5002 11.5859 5.83591 11.2499 6.25 11.2499C6.66409 11.2499 6.9998 11.5859 7 11.9999V12.9384C7.00016 13.7513 7.76407 14.3481 8.55273 14.1513L13.5527 12.9013C14.1091 12.7622 14.4999 12.2619 14.5 11.6884V4.31145C14.5 3.73789 14.1092 3.23769 13.5527 3.09856L8.55273 1.84856C7.76398 1.65168 7.00002 2.24841 7 3.06145V4.23918C6.99979 4.65321 6.66408 4.98918 6.25 4.98918C5.83592 4.98918 5.50021 4.65321 5.5 4.23918V3.06145ZM9.21973 4.96965C9.51262 4.67676 9.98738 4.67676 10.2803 4.96965L12.7803 7.46965C13.073 7.76255 13.0731 8.23735 12.7803 8.5302L10.2803 11.0302C9.98741 11.3229 9.51259 11.3229 9.21973 11.0302C8.92688 10.7373 8.92696 10.2626 9.21973 9.96965L10.4395 8.74992H3C2.42469 8.74992 2.06087 8.9371 1.84277 9.1552C1.6177 9.38034 1.5 9.68551 1.5 9.99992C1.50007 10.3142 1.61775 10.6194 1.84277 10.8447C2.06092 11.0628 2.42491 11.2509 3 11.2509C3.41421 11.2509 3.75 11.5867 3.75 12.0009C3.7496 12.4148 3.41396 12.7509 3 12.7509C2.07528 12.7509 1.31408 12.4372 0.782227 11.9052C0.257535 11.3803 6.53041e-05 10.6853 0 9.99992C0 9.31446 0.257468 8.61948 0.782227 8.09465C1.31413 7.56275 2.07531 7.24992 3 7.24992H10.4395L9.21973 6.0302C8.92688 5.73735 8.92696 5.26255 9.21973 4.96965Z"
    fill="currentColor"
  />
</svg>

<svg xmlns="http://www.w3.org/2000/svg" width="16" height="16" fill="none" data-fui-icon="true" viewBox="0 0 16 16"><path fill="currentColor" d="M5.5 3.061A2.75 2.75 0 0 1 8.917.393l5 1.25A2.75 2.75 0 0 1 16 4.311v7.377a2.75 2.75 0 0 1-2.083 2.668l-5 1.25A2.75 2.75 0 0 1 5.5 12.938V12A.75.75 0 0 1 7 12v.938c0 .813.764 1.41 1.553 1.213l5-1.25c.556-.139.947-.64.947-1.213V4.311a1.25 1.25 0 0 0-.947-1.212l-5-1.25A1.25 1.25 0 0 0 7 3.06V4.24a.75.75 0 0 1-1.5 0zM9.22 4.97a.75.75 0 0 1 1.06 0l2.5 2.5a.75.75 0 0 1 0 1.06l-2.5 2.5a.75.75 0 0 1-1.06-1.06l1.22-1.22H3c-.575 0-.94.187-1.157.405A1.2 1.2 0 0 0 1.5 10c0 .314.118.62.343.845.218.218.582.406 1.157.406a.75.75 0 0 1 0 1.5c-.925 0-1.686-.314-2.218-.846A2.7 2.7 0 0 1 0 10c0-.686.257-1.38.782-1.905C1.314 7.563 2.075 7.25 3 7.25h7.44L9.22 6.03a.75.75 0 0 1 0-1.06"/></svg>
